X: 28
T: Bairacheto
O: Macedonia
N: compare this with Barjace
M: 12/8
Q: 1/4=132
P:ABCBDB
K: Bb clef=treble
%%MIDI program 21 Accordian
P:A
g(3fge fe Bz Bde f2|\
g(3fge fe Bz Bfd B2::
P:B
Bde fe dc Bde fz|\
Bde fe dc Bfd B2:|
P:C
DEF Gz GF F2E ED|DEF Fz FE ED2 B,2|
DEF Gz GF F2E BF|DEF Fz FE ED2 B,2|
P:D
E2C CC C2 E2C C2|B,DE FE DC B,FD B,2|
e2c cc c2 e2c c2|Bde fe dc Bfd B2|



